assets/post/images/tree10.svg

<svg xmlns="http://www.w3.org/2000/svg" width="2683" height="737" overflow="hidden"><defs><clipPath id="a"><path d="M444 1178h2683v737H444z"/></clipPath></defs><g clip-path="url(#a)" transform="translate(-444 -1178)"><path fill="#f0835c" fill-rule="evenodd" stroke="#000" stroke-miterlimit="8" stroke-width="9.167" d="M698.5 1264.5c0-43.63 35.37-79 79-79s79 35.37 79 79-35.369 79-79 79-79-35.37-79-79Z"/><text font-family="Courier New,Courier New_MSFontService,sans-serif" font-size="83" font-weight="700" transform="translate(752.171 1287)">G</text><path fill="#f8ccb9" fill-rule="evenodd" stroke="#000" stroke-miterlimit="8" stroke-width="9.167" d="M448.5 1514.5c0-43.63 35.37-79 79-79s79 35.37 79 79-35.37 79-79 79-79-35.37-79-79Z"/><text font-family="Courier New,Courier New_MSFontService,sans-serif" font-size="83" font-weight="700" transform="translate(502.126 1537)">P</text><path fill="#f8ccb9" fill-rule="evenodd" stroke="red" stroke-miterlimit="8" stroke-width="9.167" d="M962.5 1514.5c0-43.63 35.37-79 79-79s79 35.37 79 79-35.37 79-79 79-79-35.37-79-79Z"/><text fill="red" font-family="Courier New,Courier New_MSFontService,sans-serif" font-size="83" font-weight="700" transform="translate(1016.71 1537)">P</text><path fill="none" stroke="#000" stroke-miterlimit="8" stroke-width="9.167" d="m583.5 1458.89 138.445-138.393m264.493 138.393L833.5 1320.5"/><path fill="#fdefe8" fill-rule="evenodd" stroke="red" stroke-miterlimit="8" stroke-width="9.167" d="M1101.5 1816.5c0-43.63 35.37-79 79-79s79 35.37 79 79-35.37 79-79 79-79-35.37-79-79Z"/><text fill="red" font-family="Courier New,Courier New_MSFontService,sans-serif" font-size="83" font-weight="700" transform="translate(1155.38 1839)">x</text><path fill="none" stroke="#000" stroke-miterlimit="8" stroke-width="9.167" d="m1180.41 1737.88-78.91-168.38"/><path fill="#f0835c" fill-rule="evenodd" stroke="red" stroke-miterlimit="8" stroke-width="9.167" d="M1698.5 1263.5c0-43.63 35.37-79 79-79s79 35.37 79 79-35.37 79-79 79-79-35.37-79-79Z"/><text fill="red" font-family="Courier New,Courier New_MSFontService,sans-serif" font-size="83" font-weight="700" transform="translate(1752.61 1286)">G</text><path fill="#f8ccb9" fill-rule="evenodd" stroke="#000" stroke-miterlimit="8" stroke-width="9.167" d="M1448.5 1513.5c0-43.63 35.37-79 79-79s79 35.37 79 79-35.37 79-79 79-79-35.37-79-79Z"/><text font-family="Courier New,Courier New_MSFontService,sans-serif" font-size="83" font-weight="700" transform="translate(1502.57 1536)">P</text><path fill="#f8ccb9" fill-rule="evenodd" stroke="#000" stroke-miterlimit="8" stroke-width="9.167" d="M1963.5 1513.5c0-43.63 35.37-79 79-79s79 35.37 79 79-35.37 79-79 79-79-35.37-79-79Z"/><text font-family="Courier New,Courier New_MSFontService,sans-serif" font-size="83" font-weight="700" transform="translate(2017.15 1536)">P</text><path fill="none" stroke="#000" stroke-miterlimit="8" stroke-width="9.167" d="m1583.5 1457.89 138.445-138.393m264.495 138.393L1833.5 1319.5"/><path fill="#fdefe8" fill-rule="evenodd" stroke="red" stroke-miterlimit="8" stroke-width="9.167" d="M2102.5 1815.5c0-43.63 35.15-79 78.5-79s78.5 35.37 78.5 79-35.15 79-78.5 79-78.5-35.37-78.5-79Z"/><text fill="red" font-family="Courier New,Courier New_MSFontService,sans-serif" font-size="83" font-weight="700" transform="translate(2155.83 1838)">x</text><path fill="none" stroke="#000" stroke-miterlimit="8" stroke-width="9.167" d="m2181.41 1736.88-78.91-168.38"/><path fill="#d74514" fill-rule="evenodd" d="M1202 1456.5h90V1400l90 113-90 113v-56.5h-90Z"/><path fill="#f8ccb9" fill-rule="evenodd" stroke="#000" stroke-miterlimit="8" stroke-width="9.167" d="M2700.5 1261.5c0-43.63 35.37-79 79-79s79 35.37 79 79-35.37 79-79 79-79-35.37-79-79Z"/><text font-family="Courier New,Courier New_MSFontService,sans-serif" font-size="83" font-weight="700" transform="translate(2754.16 1285)">P</text><path fill="#f0835c" fill-rule="evenodd" stroke="red" stroke-miterlimit="8" stroke-width="9.167" d="M2450.5 1511.5c0-43.63 35.37-79 79-79s79 35.37 79 79-35.37 79-79 79-79-35.37-79-79Z"/><text fill="red" font-family="Courier New,Courier New_MSFontService,sans-serif" font-size="83" font-weight="700" transform="translate(2504.11 1535)">G</text><path fill="#f8ccb9" fill-rule="evenodd" stroke="#000" stroke-miterlimit="8" stroke-width="9.167" d="M2292.5 1814.5c0-43.63 35.37-79 79-79s79 35.37 79 79-35.37 79-79 79-79-35.37-79-79Z"/><text font-family="Courier New,Courier New_MSFontService,sans-serif" font-size="83" font-weight="700" transform="translate(2346.29 1838)">U</text><path fill="#fdefe8" fill-rule="evenodd" stroke="red" stroke-miterlimit="8" stroke-width="9.167" d="M2964.5 1511.5c0-43.63 35.37-79 79-79s79 35.37 79 79-35.37 79-79 79-79-35.37-79-79Z"/><text fill="red" font-family="Courier New,Courier New_MSFontService,sans-serif" font-size="83" font-weight="700" transform="translate(3018.7 1535)">x</text><path fill="none" stroke="#000" stroke-miterlimit="8" stroke-width="9.167" d="m2585.5 1455.89 138.445-138.393m264.495 138.393L2835.5 1317.5m-464 418.38 102.026-168.381"/><path fill="#d74514" fill-rule="evenodd" d="M2204 1454.5h90V1398l90 113-90 113v-56.5h-90Z"/></g></svg>

<svg width="2683" height="737" xmlns="http://www.w3.org/2000/svg" xmlns:xlink="http://www.w3.org/1999/xlink" overflow="hidden"><defs><clipPath id="clip0"><rect x="444" y="1178" width="2683" height="737"/></clipPath></defs><g clip-path="url(#clip0)" transform="translate(-444 -1178)"><path d="M698.5 1264.5C698.5 1220.87 733.87 1185.5 777.5 1185.5 821.131 1185.5 856.5 1220.87 856.5 1264.5 856.5 1308.13 821.131 1343.5 777.5 1343.5 733.87 1343.5 698.5 1308.13 698.5 1264.5Z" stroke="#000000" stroke-width="9.16667" stroke-miterlimit="8" fill="#F0835C" fill-rule="evenodd"/><text font-family="Courier New,Courier New_MSFontService,sans-serif" font-weight="700" font-size="83" transform="matrix(1 0 0 1 752.171 1287)">G</text><path d="M448.5 1514.5C448.5 1470.87 483.87 1435.5 527.5 1435.5 571.13 1435.5 606.5 1470.87 606.5 1514.5 606.5 1558.13 571.13 1593.5 527.5 1593.5 483.87 1593.5 448.5 1558.13 448.5 1514.5Z" stroke="#000000" stroke-width="9.16667" stroke-miterlimit="8" fill="#F8CCB9" fill-rule="evenodd"/><text font-family="Courier New,Courier New_MSFontService,sans-serif" font-weight="700" font-size="83" transform="matrix(1 0 0 1 502.126 1537)">P</text><path d="M962.5 1514.5C962.5 1470.87 997.87 1435.5 1041.5 1435.5 1085.13 1435.5 1120.5 1470.87 1120.5 1514.5 1120.5 1558.13 1085.13 1593.5 1041.5 1593.5 997.87 1593.5 962.5 1558.13 962.5 1514.5Z" stroke="#FF0000" stroke-width="9.16667" stroke-miterlimit="8" fill="#F8CCB9" fill-rule="evenodd"/><text fill="#FF0000" font-family="Courier New,Courier New_MSFontService,sans-serif" font-weight="700" font-size="83" transform="matrix(1 0 0 1 1016.71 1537)">P</text><path d="M0 0 138.445 138.393" stroke="#000000" stroke-width="9.16667" stroke-miterlimit="8" fill="none" fill-rule="evenodd" transform="matrix(1 0 0 -1 583.5 1458.89)"/><path d="M986.438 1458.89 833.5 1320.5" stroke="#000000" stroke-width="9.16667" stroke-miterlimit="8" fill="none" fill-rule="evenodd"/><path d="M1101.5 1816.5C1101.5 1772.87 1136.87 1737.5 1180.5 1737.5 1224.13 1737.5 1259.5 1772.87 1259.5 1816.5 1259.5 1860.13 1224.13 1895.5 1180.5 1895.5 1136.87 1895.5 1101.5 1860.13 1101.5 1816.5Z" stroke="#FF0000" stroke-width="9.16667" stroke-miterlimit="8" fill="#FDEFE8" fill-rule="evenodd"/><text fill="#FF0000" font-family="Courier New,Courier New_MSFontService,sans-serif" font-weight="700" font-size="83" transform="matrix(1 0 0 1 1155.38 1839)">x</text><path d="M1180.41 1737.88 1101.5 1569.5" stroke="#000000" stroke-width="9.16667" stroke-miterlimit="8" fill="none" fill-rule="evenodd"/><path d="M1698.5 1263.5C1698.5 1219.87 1733.87 1184.5 1777.5 1184.5 1821.13 1184.5 1856.5 1219.87 1856.5 1263.5 1856.5 1307.13 1821.13 1342.5 1777.5 1342.5 1733.87 1342.5 1698.5 1307.13 1698.5 1263.5Z" stroke="#FF0000" stroke-width="9.16667" stroke-miterlimit="8" fill="#F0835C" fill-rule="evenodd"/><text fill="#FF0000" font-family="Courier New,Courier New_MSFontService,sans-serif" font-weight="700" font-size="83" transform="matrix(1 0 0 1 1752.61 1286)">G</text><path d="M1448.5 1513.5C1448.5 1469.87 1483.87 1434.5 1527.5 1434.5 1571.13 1434.5 1606.5 1469.87 1606.5 1513.5 1606.5 1557.13 1571.13 1592.5 1527.5 1592.5 1483.87 1592.5 1448.5 1557.13 1448.5 1513.5Z" stroke="#000000" stroke-width="9.16667" stroke-miterlimit="8" fill="#F8CCB9" fill-rule="evenodd"/><text font-family="Courier New,Courier New_MSFontService,sans-serif" font-weight="700" font-size="83" transform="matrix(1 0 0 1 1502.57 1536)">P</text><path d="M1963.5 1513.5C1963.5 1469.87 1998.87 1434.5 2042.5 1434.5 2086.13 1434.5 2121.5 1469.87 2121.5 1513.5 2121.5 1557.13 2086.13 1592.5 2042.5 1592.5 1998.87 1592.5 1963.5 1557.13 1963.5 1513.5Z" stroke="#000000" stroke-width="9.16667" stroke-miterlimit="8" fill="#F8CCB9" fill-rule="evenodd"/><text font-family="Courier New,Courier New_MSFontService,sans-serif" font-weight="700" font-size="83" transform="matrix(1 0 0 1 2017.15 1536)">P</text><path d="M0 0 138.445 138.393" stroke="#000000" stroke-width="9.16667" stroke-miterlimit="8" fill="none" fill-rule="evenodd" transform="matrix(1 0 0 -1 1583.5 1457.89)"/><path d="M1986.44 1457.89 1833.5 1319.5" stroke="#000000" stroke-width="9.16667" stroke-miterlimit="8" fill="none" fill-rule="evenodd"/><path d="M2102.5 1815.5C2102.5 1771.87 2137.65 1736.5 2181 1736.5 2224.35 1736.5 2259.5 1771.87 2259.5 1815.5 2259.5 1859.13 2224.35 1894.5 2181 1894.5 2137.65 1894.5 2102.5 1859.13 2102.5 1815.5Z" stroke="#FF0000" stroke-width="9.16667" stroke-miterlimit="8" fill="#FDEFE8" fill-rule="evenodd"/><text fill="#FF0000" font-family="Courier New,Courier New_MSFontService,sans-serif" font-weight="700" font-size="83" transform="matrix(1 0 0 1 2155.83 1838)">x</text><path d="M2181.41 1736.88 2102.5 1568.5" stroke="#000000" stroke-width="9.16667" stroke-miterlimit="8" fill="none" fill-rule="evenodd"/><path d="M1202 1456.5 1292 1456.5 1292 1400 1382 1513 1292 1626 1292 1569.5 1202 1569.5Z" fill="#D74514" fill-rule="evenodd"/><path d="M2700.5 1261.5C2700.5 1217.87 2735.87 1182.5 2779.5 1182.5 2823.13 1182.5 2858.5 1217.87 2858.5 1261.5 2858.5 1305.13 2823.13 1340.5 2779.5 1340.5 2735.87 1340.5 2700.5 1305.13 2700.5 1261.5Z" stroke="#000000" stroke-width="9.16667" stroke-miterlimit="8" fill="#F8CCB9" fill-rule="evenodd"/><text font-family="Courier New,Courier New_MSFontService,sans-serif" font-weight="700" font-size="83" transform="matrix(1 0 0 1 2754.16 1285)">P</text><path d="M2450.5 1511.5C2450.5 1467.87 2485.87 1432.5 2529.5 1432.5 2573.13 1432.5 2608.5 1467.87 2608.5 1511.5 2608.5 1555.13 2573.13 1590.5 2529.5 1590.5 2485.87 1590.5 2450.5 1555.13 2450.5 1511.5Z" stroke="#FF0000" stroke-width="9.16667" stroke-miterlimit="8" fill="#F0835C" fill-rule="evenodd"/><text fill="#FF0000" font-family="Courier New,Courier New_MSFontService,sans-serif" font-weight="700" font-size="83" transform="matrix(1 0 0 1 2504.11 1535)">G</text><path d="M2292.5 1814.5C2292.5 1770.87 2327.87 1735.5 2371.5 1735.5 2415.13 1735.5 2450.5 1770.87 2450.5 1814.5 2450.5 1858.13 2415.13 1893.5 2371.5 1893.5 2327.87 1893.5 2292.5 1858.13 2292.5 1814.5Z" stroke="#000000" stroke-width="9.16667" stroke-miterlimit="8" fill="#F8CCB9" fill-rule="evenodd"/><text font-family="Courier New,Courier New_MSFontService,sans-serif" font-weight="700" font-size="83" transform="matrix(1 0 0 1 2346.29 1838)">U</text><path d="M2964.5 1511.5C2964.5 1467.87 2999.87 1432.5 3043.5 1432.5 3087.13 1432.5 3122.5 1467.87 3122.5 1511.5 3122.5 1555.13 3087.13 1590.5 3043.5 1590.5 2999.87 1590.5 2964.5 1555.13 2964.5 1511.5Z" stroke="#FF0000" stroke-width="9.16667" stroke-miterlimit="8" fill="#FDEFE8" fill-rule="evenodd"/><text fill="#FF0000" font-family="Courier New,Courier New_MSFontService,sans-serif" font-weight="700" font-size="83" transform="matrix(1 0 0 1 3018.7 1535)">x</text><path d="M0 0 138.445 138.393" stroke="#000000" stroke-width="9.16667" stroke-miterlimit="8" fill="none" fill-rule="evenodd" transform="matrix(1 0 0 -1 2585.5 1455.89)"/><path d="M2988.44 1455.89 2835.5 1317.5" stroke="#000000" stroke-width="9.16667" stroke-miterlimit="8" fill="none" fill-rule="evenodd"/><path d="M0 0 102.026 168.381" stroke="#000000" stroke-width="9.16667" stroke-miterlimit="8" fill="none" fill-rule="evenodd" transform="matrix(1 0 0 -1 2371.5 1735.88)"/><path d="M2204 1454.5 2294 1454.5 2294 1398 2384 1511 2294 1624 2294 1567.5 2204 1567.5Z" fill="#D74514" fill-rule="evenodd"/></g></svg>
